X: 21281
T: Kelly Thompson's
R: reel
M: 4/4
K: Dmajor
ac~c2 acgc|fd~d2 Aded|cA~A2 GAcA|dAFA defg|
ac~c2 acgc|fd~d2 Aded|cA~A2 GAcA|dAFA D4:|
A,E~E2 A,ECE|DF~F2 DFA,F|GAcB AGFE|DEDC DEFD|
A,E~E2 A,ECE|DF~F2 DFA,F|GAcB AGFE|DEDC D4:|

